X:1
T:O! Say, But I’m Glad
T:Mildred Ellen Sullivan
T:O! Say, But I’m Glad
C:Mildred Ellen Sullivan
%%score ( 1 2 ) ( 3 4 )
L:1/8
M:6/8
K:D
V:1 treble 
V:2 treble 
V:3 bass 
V:4 bass 
V:1
 [A,DF][A,DF][A,DF] [A,DF][CE][DF] | [A,FA]2 [A,FA] [A,DF]3 | %2
w: 1.~There is a song in my|heart to- day,|
w: 2.~Won- der- ful, mar- ve- lous|love He brings,|
w: 3.~We have a fel- low- ship|rich and sweet,|
w: 4.~Won’t you come to Him with|all your care,|
 [G,CE][G,CE][G,CE] ([G,B,D][G,B,D])[CE] | ([A,DF]3 [DFA]3) | [A,DF][A,DF][A,DF] [DF][CE][DF] | %5
w: Some- thing I ne- * ver|had; *|Je- sus has tak- en my|
w: In- to a heart * that’s|sad; *|Through dark- est tun- nels the|
w: Tongues can ne- ver * re-|late; *|A- bid- ing in Him: the|
w: Wear- y and worn * and|sad? *|You, too, will sing as His|
 [A,FA]2 [A,FA] [A,DF]3 | [A,CA]3 [B,CG][A,CF][G,CE] | [F,A,D]6 ||"^Refrain" [DFd]3 [Fd][Ac][GB] | %9
w: a- way, O!|say, but I’m glad.|||
w: just sings, O!|say, but I’m glad.|||
w: Re- treat, O!|but say, I’m glad.|O!|say, but I’m glad,|
w: you share, O!|say, but I’m glad.|||
 [DFA]2 [A,DF] [DFA]3 | [B,CG]3 [B,CG][A,CF][G,CE] | ([F,B,D]3 A[^GB][=Gc]) | %12
w: |||
w: |||
w: glad, O! say,|but I’m glad, Je-|sus * * *|
w: |||
 [Fd][Fd][Fd] [Fd][Ac][GB] | AB[DFA] [A,DF]3 | [A,CA]3 [B,CG][A,CF][G,CE] | [F,A,D]6 |] %16
w: ||||
w: ||||
w: has come and my cup’s o-|run; O! say, but|glad. * * *||
w: ||||
V:2
 x6 | x6 | x6 | x6 | x2 A,3 x | x6 | x6 | x6 || x2 D3 x | x6 | x6 | x6 | x2 D3 x | [DF]2 x4 | x6 | %15
w: ||||sins|||||||||||
w: ||||soul|||||||||||
w: ||||soul’s||||I’m||||ver-|I’m||
w: ||||love|||||||||||
 x6 |] %16
w: |
w: |
w: |
w: |
V:3
 z2 A,, F,3 | z2 A,, (F,2 A,,) | z3 A,,3 | z B,,A,, F,3 | z2 A,, F,3 | z2 A,, (F,2 A,,) | %6
 z2 A,, A,,2 A,, | z B,,A,, D,3 || z2 A,, F,3 | z2 A,, (F,2 A,,) | z2 A,, A,,2 A,, | %11
 z2 A,, F,=F,E, | z2 A,, F,3 | z2 A,, (F,2 A,,) | A,,,2 A,, A,,2 A,, | (D,,B,,A,, D,3) |] %16
V:4
 D,,6 | D,,6 | A,,,6 | D,,6 | D,,6 | D,,6 | A,,,6 | D,,6 || D,,6 | D,,6 | A,,,6 | D,,6 | D,,6 | %13
 D,,6 | A,,,6 | D,,6 |] %16

